src/lib/assets/icons/barq-transparent.svg

<?xml version="1.0" encoding="UTF-8" standalone="no"?>
<svg
   viewBox="0 0 408 360"
   version="1.1"
   id="barq-logo"
   xmlns="http://www.w3.org/2000/svg"
   fill="currentColor"
   xmlns:svg="http://www.w3.org/2000/svg"
   xmlns:rdf="http://www.w3.org/1999/02/22-rdf-syntax-ns#"
   xmlns:cc="http://creativecommons.org/ns#"
   xmlns:dc="http://purl.org/dc/elements/1.1/">
  <title
     id="barq-logo-title">Logo</title>
  <defs
     id="barq-logo-defs-1">
    <path
       d="M384,47.6783738 L384,224.286416 C384,250.921324 362.438342,271.96479 336.001875,271.96479 L156.008906,271.96479 L64.5674717,330.067042 C47.9981251,342.14719 47.9981251,333.594447 47.9981251,323.799643 L47.9981251,271.96479 C21.5616577,271.96479 0,250.241284 0,224.286416 L0,47.6783738 C0,21.0434661 21.5616577,0 47.9981251,0 L335.986876,0 C363.075817,0 384,21.7235063 384,47.6783738 Z"
       id="barq-logo-path-1" />
  </defs>
  <g id="barq-logo-text-bg-layer">
      <!-- changing the fill and fill-opacity attributes of this element allows you to color the text in a different way -->
      <rect
              fill-opacity="0"
              class="text-bg"
              id="barq-text-bg"
              width="357.54477"
              height="117.23785"
              x="13.810739"
              y="87.161125" />
  </g>
  <g
     id="barq-logo-bubble">
    <path
       id="barq-logo-bubble-path"
       d="M 47.998047 0 C 21.56171 4.736928e-15 3.7895575e-14 21.042961 0 47.677734 L 0 224.28711 C -4.736928e-15 250.24182 21.56171 271.96484 47.998047 271.96484 L 47.998047 323.79883 C 47.998047 333.59359 47.999097 342.14646 64.568359 330.06641 L 156.00977 271.96484 L 336.00195 271.96484 C 362.43832 271.96484 384 250.92186 384 224.28711 L 384 47.677734 C 384 21.722996 363.07512 3.7895575e-14 335.98633 0 L 47.998047 0 z M 283.01758 98.585938 C 306.77339 98.585938 324.98047 115.98972 324.98047 138.93945 C 324.98047 152.73774 318.29411 164.49631 307.76758 171.65625 C 312.98342 172.88909 319.10144 173.64681 325.26562 173.78906 L 318.3418 191.85547 C 304.49609 190.85972 295.62988 185.16993 288.70703 178.67383 C 286.81036 178.91091 284.91284 179.00586 282.96875 179.00586 C 259.21294 179.00586 241.05273 161.69952 241.05273 138.93945 C 241.05273 115.98972 259.26176 98.585938 283.01758 98.585938 z M 119.66602 99.677734 L 129.29102 99.677734 L 164.85352 177.0625 L 142.61523 177.0625 L 138.77539 168.14648 L 110.23047 168.14648 L 106.3418 177.0625 L 84.150391 177.0625 L 119.66602 99.677734 z M 24.5 100.625 L 49.630859 100.625 C 63.476525 100.625 73.623047 109.96764 73.623047 120.49414 C 73.623047 128.3653 68.408796 134.00781 65.279297 134.00781 C 73.434962 134.00781 82.585938 142.21017 82.585938 153.73242 C 82.585938 165.82367 72.438627 177.0625 57.123047 177.0625 L 24.5 177.0625 L 24.5 100.625 z M 172.48828 100.625 L 201.50781 100.625 C 218.00885 100.625 229.81445 111.76921 229.81445 125.47266 C 229.81445 135.00342 224.07778 142.96881 216.58594 146.38281 L 237.07031 177.0625 L 213.31445 177.0625 L 192.87695 143.86914 L 192.87695 177.0625 L 172.58203 177.0625 L 172.48828 100.625 z M 335.79102 100.625 L 359.31055 100.625 L 356.03906 150.36523 L 339.20508 150.36523 L 335.79102 100.625 z M 283.01758 117.88477 C 270.87888 117.88477 261.58398 126.99009 261.58398 138.79688 C 261.58398 150.55624 270.87888 159.61328 283.01758 159.61328 C 295.15628 159.61328 304.44922 150.55624 304.44922 138.79688 C 304.44922 126.99009 295.15628 117.88477 283.01758 117.88477 z M 44.035156 118.26562 L 44.035156 130.26172 L 48.873047 130.26172 C 53.282794 130.26172 56.601563 128.08013 56.601562 124.14453 C 56.601562 120.44602 53.376005 118.26562 49.013672 118.26562 L 44.035156 118.26562 z M 192.7832 118.88086 L 192.7832 134.19727 L 201.08008 134.24414 C 205.395 134.29156 209.33008 131.25676 209.33008 126.5625 C 209.33008 121.82082 205.34758 118.88086 201.08008 118.88086 L 192.7832 118.88086 z M 124.50195 135.19336 L 116.63086 153.30664 L 132.32617 153.30664 L 124.50195 135.19336 z M 44.035156 144.10742 L 44.035156 158.61719 L 54.041016 158.61719 C 58.687847 158.61719 63.144531 156.34063 63.144531 151.31445 C 63.144531 146.8573 59.921008 144.1543 54.183594 144.1543 L 44.035156 144.10742 z M 347.55078 157.62109 C 354.09426 157.62109 359.5 162.78861 359.5 168.81055 C 359.5 174.92727 354.09517 179.76367 347.64648 179.76367 C 341.15042 179.76367 335.79102 174.78578 335.79102 168.57422 C 335.79102 162.50487 341.19697 157.62109 347.55078 157.62109 z " />
  </g>
</svg>

<svg xmlns="http://www.w3.org/2000/svg" viewBox="0 0 408 360" id="barq-logo-svg" class="barq-logo">
  <title>BARQ Logo</title>
  <!-- changing the fill and fill-opacity attributes of this element allows you to color the text in a different way -->
  <path fill="none" d="M13.811 87.161h357.545v117.238H13.811z" class="text-bg"/>
  <path d="M47.998 0C21.562 0 0 21.043 0 47.678v176.61c0 25.954 21.562 47.677 47.998 47.677v51.834c0 9.795.001 18.347 16.57 6.267l91.442-58.101h179.992c26.436 0 47.998-21.043 47.998-47.678V47.677C384 21.724 363.075 0 335.986 0zm235.02 98.586c23.755 0 41.962 17.404 41.962 40.353 0 13.799-6.686 25.557-17.212 32.717 5.215 1.233 11.333 1.99 17.498 2.133l-6.924 18.066c-13.846-.995-22.712-6.685-29.635-13.181a46 46 0 0 1-5.738.332c-23.756 0-41.916-17.306-41.916-40.067 0-22.95 18.209-40.353 41.965-40.353m-163.352 1.092h9.625l35.563 77.385h-22.239l-3.84-8.917H110.23l-3.888 8.917H84.15zm-95.166.947h25.13c13.847 0 23.993 9.343 23.993 19.87 0 7.87-5.214 13.513-8.344 13.513 8.156 0 17.307 8.202 17.307 19.724 0 12.092-10.147 23.33-25.463 23.33H24.5zm147.988 0h29.02c16.5 0 28.306 11.144 28.306 24.848 0 9.53-5.736 17.496-13.228 20.91l20.484 30.68h-23.756l-20.437-33.194v33.194h-20.295zm163.303 0h23.52l-3.272 49.74h-16.834zm-52.773 17.26c-12.14 0-21.434 9.105-21.434 20.912 0 11.76 9.295 20.816 21.434 20.816 12.138 0 21.431-9.057 21.431-20.816 0-11.807-9.293-20.912-21.431-20.912m-238.983.38v11.997h4.838c4.41 0 7.729-2.182 7.729-6.117 0-3.699-3.226-5.88-7.588-5.88zm148.748.616v15.316l8.297.047c4.315.048 8.25-2.987 8.25-7.681 0-4.742-3.982-7.682-8.25-7.682zm-68.281 16.312-7.871 18.114h15.695zm-80.467 8.914v14.51h10.006c4.647 0 9.104-2.276 9.104-7.303 0-4.457-3.224-7.16-8.961-7.16zm303.516 13.514c6.543 0 11.949 5.168 11.949 11.19 0 6.116-5.405 10.953-11.854 10.953-6.496 0-11.855-4.978-11.855-11.19 0-6.07 5.406-10.953 11.76-10.953"/>
</svg>
